X:694
T:Birkhall
C:John Robertson
S:Sheet published by Rae MacIntosh, Edinburgh, early 1950s (?)
Z:Nigel Gatherer
M:4/4
L:1/8
K:D
A  | d2 fd A2 dA | FAFD  A2 FA | B2 dB A2 d2 | e3 f e2
A2 | defd  A2 dA | FAFD  A2 FA | Bcde  fA e2 | d4   d2
fg | a3  b a2 f2 | df A2 d2 ef | g3  a g2 e2 | ce A2 e2
fg | a3  b a2 f2 | df A2 d2 ef | gage  A2 Bc | dd d2 d2 :|
<end>
<start>
